X: 2787
T: Banshee, The
R: reel
M: 4/4
K: Gmajor
G2 GD EDEG|A^GAB d2 B/c/d|eged BAGA|1 BAGE ED:|2 BAGE ED D2||
|:eaag efge|dBB^A B2 Bd|1 eB B2 eBgB|eBB^A B2 Bd:|2 eged BAGA|BAGE ED||

